X:29
T:Red-Haired Boy
G:Key: A Mixolydian
M:C|
Z:abc-transcription Josh Larios <hades@elsewhere.org>, 2017.02.14
Z:abc-copyright This transcription is licensed under a Creative Commons Attribution-ShareAlike 4.0 International License.
K:A Mix
[P:A]y0|: AG | "A"E2 A2 AB cd | ef ec "D"d2 cd | "A"e2 A2 AB cA | "G"B2  G2 G2- GF |
| "A"E2 A2 AB cd | ef ec "D"d2 cd | "A"e2 a2 ag ed | "E"c2 A2 "A"A2 :|
[P:B]y0|: ef | "G"g2 ef g2 ef | "D"gf ec d2 cd | "A"e2 A2 AB cA | "G"B2 G2 G2- GF |
| "A"E2 A2 AB cd | ef ec "D"d2 cd | "A"e2 a2 ag ed | "E"c2 A2 "A"A2 :|

